X:3
T:Harem Scarum
M:2/4
Q:1/4=100
L:1/16
K:D
V:1
%%MIDI channel 1
%%MIDI program 72
%%MIDI transpose 8
%%MIDI grace 1/8
%%MIDI ratio 3 1
|:d2f2 dfdf|c2e2 cece|d2f2 dfdf|B2g2 BgBg|
d2f2 dfdf|c2e2 cece|dfdf cecA|d2d2 d4::
d2AA F2D2|F2A2 d4|d2dd f2a2|g2e2 c2A2|
d2AA F2D2|F2A2 d4|dcde f2a2|gece d4:|
V:2
%%MIDI channel 1
%%MIDI program 72
%%MIDI transpose 8
%%MIDI grace 1/8
%%MIDI ratio 3 1
|:!p!F2D2 FDFD|A2A2 A2>G2 |F2D2 FDFA|G2G2 G2>B2 |
F2D2 FDFD|A2A2 A2>G2 |FDFD A2A2|F2F2 F4::
f2e2 d2f2|d2e2 f4|F2F2 d2f2|e2c2 A2e2|
f2e2 d2f2|d2e2 f4|FDFA d2f2|ecAG F4:|

